X:1
T:The Mist Covered Motorway
C:Bob Entwistle
O:New Zealand
M:3/4
N:Arr. Marcus Turner
L:1/8
Q:1/4=80
K:D
V:1
"D"D4EG|"Bm"A4BA|"A"A2B2d2|"A/c#"e4f/2e/2d/2e/2|"D"f4ef|"Em"a2e3e|"F#m"e4 cB|"G"d6|
"A"c4Bc|"F#m"e2c4|"G"B4AB|"F#m"c2F4|"A"E4DE|"D"F2 A4|"F#m"B2e3d|"G"d6:|
|:"D"f4 ed|"A"e4 fe|"Bm"f4ed|"F#m"f2a4|"D"f4ed|"Em"B4AB|"Bm"f/2e/2d/2e/ 2f A3|"G"B4dB|
"D"A4 Bd|"A"F2G2A2|"Bm"D4EG|"F#m"A4BA|"D"f4ed|"G"B4AB|"A"e4-e d|"D"d6:|]

